X:1
T:[ID 2-53b]
T:[ID 2-53b]
T:Bezeichnung standardisiert: Tantz Tantz
T:Urheber unbekannt Datum in der hier transkribierten schriftlichen Quelle: 1767
C:Urheber unbekannt
C:Datum in der hier transkribierten schriftlichen Quelle: 1767
L:1/8
M:2/4
K:D
V:1 treble 
V:1
 f | g2 e2 | dd/e/ df | g2 e2 | d3 :: a | b3 g | a3 f | g2 f2 | e/d/c/B/ Aa | b3 g | a3 f | g2 e2 | %13
 d3 :| %14

